img/magic-icon-dark.svg

<svg width="88" height="88" viewBox="0 0 88 88" fill="none" xmlns="http://www.w3.org/2000/svg">
<circle cx="44" cy="44" r="44" fill="#0F0F0F"/>
<rect x="17.7481" y="69.6674" width="42.4895" height="6.53535" rx="1" transform="rotate(-50.2616 17.7481 69.6674)" stroke="#FF1515" stroke-width="2"/>
<path d="M41.9238 40.5869C44.1761 42.4593 46.5377 44.4226 46.5377 44.4226" stroke="#FF1515" stroke-width="2" stroke-linecap="round" stroke-linejoin="round"/>
<path d="M56.9559 44.6763C57.0991 44.195 57.8178 44.1725 57.9886 44.6447C58.5038 46.069 59.2663 47.9933 59.8219 48.6C60.368 49.1962 62.2466 49.9326 63.6788 50.4312C64.1597 50.5987 64.1448 51.3481 63.6587 51.4997C62.3006 51.9232 60.5382 52.5675 59.8219 53.24C59.1233 53.8958 58.4489 55.6458 57.9938 57.0462C57.8322 57.5434 57.0403 57.5357 56.8928 57.0341C56.4868 55.6527 55.9025 53.9325 55.3419 53.24C54.7689 52.5323 52.9159 51.9016 51.4339 51.4912C50.928 51.3511 50.903 50.5559 51.4015 50.3913C52.908 49.8938 54.8102 49.1805 55.3419 48.6C55.8934 47.9978 56.5331 46.0974 56.9559 44.6763Z" fill="#FF1515"/>
<path d="M34.4539 22.6758C34.5983 22.1949 35.3187 22.1729 35.4905 22.6447C35.9725 23.9683 36.6642 25.6957 37.1719 26.25C37.6703 26.7942 39.3526 27.4628 40.6802 27.9292C41.1606 28.0979 41.1443 28.8497 40.6587 29.0031C39.402 29.4001 37.8242 29.9876 37.1719 30.6C36.5369 31.1962 35.9231 32.7568 35.4975 34.0479C35.3338 34.5444 34.539 34.5364 34.3899 34.0353C34.0112 32.7626 33.4811 31.229 32.9719 30.6C32.4507 29.9562 30.7999 29.3805 29.4331 28.9954C28.9278 28.853 28.9036 28.0543 29.4016 27.8882C30.7925 27.4243 32.4879 26.7785 32.9719 26.25C33.4755 25.7001 34.0577 23.9952 34.4539 22.6758Z" fill="#FF1515"/>
<path d="M47.7408 9.67119C47.7952 9.47785 48.0783 9.46913 48.1442 9.65884C48.4797 10.6239 49.1237 12.3606 49.5719 12.85C50.0157 13.3346 51.74 13.9538 52.7238 14.2785C52.9173 14.3424 52.9102 14.6357 52.7145 14.6922C51.7733 14.9636 50.1599 15.488 49.5719 16.04C48.9919 16.5845 48.4362 18.2258 48.141 19.2162C48.0812 19.4166 47.773 19.4141 47.7179 19.2124C47.4501 18.2322 46.959 16.617 46.4919 16.04C46.0186 15.4554 44.2747 14.9472 43.2294 14.6864C43.0257 14.6355 43.015 14.3257 43.2155 14.2633C44.2711 13.9348 46.0549 13.3272 46.4919 12.85C46.9382 12.3627 47.4685 10.6387 47.7408 9.67119Z" fill="#FF1515"/>
<path d="M60.966 18.679C61.1035 18.196 61.8145 18.1746 61.9806 18.6485C62.73 20.7871 64.0758 24.367 65.0219 25.4C65.9577 26.4217 69.502 27.7177 71.6765 28.443C72.1596 28.6042 72.1439 29.341 71.6552 29.4842C69.5789 30.0924 66.2594 31.1981 65.0219 32.36C63.8041 33.5033 62.6352 36.8632 61.9749 39.0405C61.8232 39.5408 61.0475 39.5345 60.9079 39.0307C60.3109 36.8771 59.2822 33.5709 58.3019 32.36C57.3067 31.1308 53.7374 30.0565 51.4383 29.4708C50.9296 29.3412 50.9037 28.5627 51.4044 28.405C53.729 27.6731 57.3822 26.4041 58.3019 25.4C59.2435 24.3719 60.3565 20.821 60.966 18.679Z" fill="#FF1515"/>
</svg>

<?xml version="1.0" encoding="UTF-8"?>
<svg id="Layer_1" xmlns="http://www.w3.org/2000/svg" version="1.1" viewBox="0 0 88 88">
  <!-- Generator: Adobe Illustrator 29.5.1, SVG Export Plug-In . SVG Version: 2.1.0 Build 141)  -->
  <defs>
    <style>
      .st0 {
        fill: #121212;
      }

      .st1 {
        stroke-linecap: round;
        stroke-linejoin: round;
        stroke-width: 2px;
      }

      .st1, .st2 {
        fill: none;
        stroke: #ff1515;
      }

      .st3 {
        fill: #ff1515;
      }

      .st2 {
        stroke-miterlimit: 4;
        stroke-width: 2px;
      }
    </style>
  </defs>
  <circle class="st0" cx="44" cy="44" r="44"/>
  <rect class="st2" x="12.6" y="52.15" width="42.49" height="6.54" rx="1" ry="1" transform="translate(-30.41 46.01) rotate(-50.26)"/>
  <path class="st1" d="M41.92,40.59c2.25,1.87,4.61,3.84,4.61,3.84"/>
  <path class="st3" d="M56.96,44.68c.14-.48.86-.5,1.03-.03.52,1.42,1.28,3.35,1.83,3.96.55.6,2.42,1.33,3.86,1.83.48.17.47.92-.02,1.07-1.36.42-3.12,1.07-3.84,1.74-.7.66-1.37,2.41-1.83,3.81-.16.5-.95.49-1.1-.01-.41-1.38-.99-3.1-1.55-3.79-.57-.71-2.43-1.34-3.91-1.75-.51-.14-.53-.94-.03-1.1,1.51-.5,3.41-1.21,3.94-1.79.55-.6,1.19-2.5,1.61-3.92Z"/>
  <path class="st3" d="M34.45,22.68c.14-.48.86-.5,1.04-.03.48,1.32,1.17,3.05,1.68,3.61.5.54,2.18,1.21,3.51,1.68.48.17.46.92-.02,1.07-1.26.4-2.83.98-3.49,1.6-.64.6-1.25,2.16-1.67,3.45-.16.5-.96.49-1.11-.01-.38-1.27-.91-2.81-1.42-3.44-.52-.64-2.17-1.22-3.54-1.6-.51-.14-.53-.94-.03-1.11,1.39-.46,3.09-1.11,3.57-1.64.5-.55,1.09-2.25,1.48-3.57Z"/>
  <path class="st3" d="M47.74,9.67c.05-.19.34-.2.4-.01.34.97.98,2.7,1.43,3.19.44.48,2.17,1.1,3.15,1.43.19.06.19.36,0,.41-.94.27-2.55.8-3.14,1.35-.58.54-1.14,2.19-1.43,3.18-.06.2-.37.2-.42,0-.27-.98-.76-2.6-1.23-3.17-.47-.58-2.22-1.09-3.26-1.35-.2-.05-.21-.36-.01-.42,1.06-.33,2.84-.94,3.28-1.41.45-.49.98-2.21,1.25-3.18Z"/>
  <path class="st3" d="M60.97,18.68c.14-.48.85-.5,1.01-.03.75,2.14,2.1,5.72,3.04,6.75.94,1.02,4.48,2.32,6.65,3.04.48.16.47.9-.02,1.04-2.08.61-5.4,1.71-6.63,2.88-1.22,1.14-2.39,4.5-3.05,6.68-.15.5-.93.49-1.07,0-.6-2.15-1.63-5.46-2.61-6.67-1-1.23-4.56-2.3-6.86-2.89-.51-.13-.53-.91-.03-1.07,2.32-.73,5.98-2,6.9-3.01.94-1.03,2.05-4.58,2.66-6.72Z"/>
</svg>
